packages/ui-icons/svg/Line/eye.svg

<svg viewBox="0 0 1920 1920" version="1.1" xmlns="http://www.w3.org/2000/svg">
    <path d="M960,1489.82027 C611.525723,1489.82027 291.455067,1287.49746 118.7017,959.901965 C291.455067,632.306469 611.525723,429.983661 960,429.983661 C1308.47428,429.983661 1628.54493,632.306469 1801.2983,959.901965 C1628.54493,1287.49746 1308.47428,1489.82027 960,1489.82027 L960,1489.82027 Z M1908.3418,936.267609 C1720.64473,558.647825 1357.33274,324 960,324 C562.667255,324 199.355266,558.647825 11.6582027,936.267609 L0,959.901965 L11.6582027,983.536321 C199.355266,1361.15611 562.667255,1595.80393 960,1595.80393 C1357.33274,1595.80393 1720.64473,1361.15611 1908.3418,983.536321 L1920,959.901965 L1908.3418,936.267609 Z M960,1171.86929 C843.100022,1171.86929 748.032678,1076.80194 748.032678,959.901965 C748.032678,843.001987 843.100022,747.934643 960,747.934643 C1076.89998,747.934643 1171.96732,843.001987 1171.96732,959.901965 C1171.96732,1076.80194 1076.89998,1171.86929 960,1171.86929 M960,641.950983 C784.703025,641.950983 642.049017,784.60499 642.049017,959.901965 C642.049017,1135.19894 784.703025,1277.85295 960,1277.85295 C1135.29698,1277.85295 1277.95098,1135.19894 1277.95098,959.901965 C1277.95098,784.60499 1135.29698,641.950983 960,641.950983" stroke="none" stroke-width="1" fill-rule="evenodd"/>
</svg>

<svg viewBox="0 0 1920 1920" version="1.1" xmlns="http://www.w3.org/2000/svg">
    <path d="M960 1489.82c-348.474 0-668.545-202.323-841.298-529.918C291.455 632.306 611.526 429.984 960 429.984s668.545 202.322 841.298 529.918C1628.545 1287.497 1308.474 1489.82 960 1489.82zm948.342-553.552C1720.645 558.648 1357.332 324 960 324c-397.333 0-760.645 234.648-948.342 612.268L0 959.902l11.658 23.634c187.697 377.62 551.01 612.268 948.342 612.268 397.333 0 760.645-234.648 948.342-612.268L1920 959.902l-11.658-23.634zM960 1171.869c-116.9 0-211.967-95.067-211.967-211.967 0-116.9 95.067-211.967 211.967-211.967 116.9 0 211.967 95.067 211.967 211.967 0 116.9-95.067 211.967-211.967 211.967m0-529.918c-175.297 0-317.951 142.654-317.951 317.951 0 175.297 142.654 317.95 317.951 317.95 175.297 0 317.951-142.653 317.951-317.95S1135.297 641.951 960 641.951" stroke="none" stroke-width="1" fill-rule="evenodd"/>
</svg>
